X:1
T:Hoagie's Diner
Z:robin.beech@mcgill.ca
R:polka
M:2/4
L:1/8
K:Dmin
d3/e/ fd | ec ce | dB Bd | cA AG | d3/e/ fd | ec ce | dB A^c | d3A :|
aA da | gB dg | fA df | eA ^ce | aA da | gA dg | ^f3/e/ d^c | d3A :|
